src/assets/images/DHLab_logo.svg

<svg width="85" height="26" viewBox="0 0 85 26" fill="none" xmlns="http://www.w3.org/2000/svg">
<path fill-rule="evenodd" clip-rule="evenodd" d="M5.96933 20.5689V11.7841C8.73621 11.7841 12.3871 11.2436 12.3879 16.1764C12.3886 21.0617 8.59965 20.5689 5.96933 20.5689ZM0.117891 6.77872C-0.0941037 7.25138 0.0445124 23.5353 0.0445124 25.5744C2.31567 25.5744 4.58688 25.5744 6.85804 25.5744C9.31469 25.5744 10.8336 25.7019 13.011 24.7888C20.2657 21.747 20.1764 10.4917 13.0207 7.5541C10.0142 6.32 5.26955 6.67654 1.82199 6.67654C1.42901 6.67654 0.459601 6.5859 0.117891 6.77872Z" fill="#141414"/>
<path fill-rule="evenodd" clip-rule="evenodd" d="M20.4596 6.77871C20.2476 7.25138 20.3863 23.5353 20.3863 25.5744H26.3111V18.7302H31.5445V25.5744H37.4693V7.8001C37.4722 6.32106 38.1791 6.68099 32.7295 6.67653C31.7367 6.67568 31.5317 6.40447 31.5421 7.38903L31.5445 13.4184H26.3111L26.3156 6.97826C26.243 6.50871 25.6693 6.67618 25.1261 6.67653L21.1754 6.67532C20.6682 6.67022 20.7321 6.62484 20.4596 6.77871Z" fill="#141414"/>
<path fill-rule="evenodd" clip-rule="evenodd" d="M69.2656 18.628C69.2671 18.6035 69.3018 18.554 69.305 18.5667L69.3582 18.4175C69.4068 18.0829 69.2645 17.5584 69.8366 16.7673C70.1776 16.2962 70.8574 15.9621 71.4375 15.9647C74.3298 15.9784 74.4055 21.3891 71.4379 21.3934C70.2588 21.3953 69.4118 20.395 69.3637 19.2417C69.3579 19.1014 69.263 18.6712 69.2656 18.628ZM63.7358 25.6764H69.1669V24.757C69.9499 25.164 70.6206 25.9836 72.5221 25.9851C80.4182 25.9916 81.1953 15.4823 76.337 12.4365C74.6854 11.4013 72.6951 11.0769 70.8564 11.6931C69.9945 11.9819 70.0162 12.155 69.3643 12.6012V6.67651H63.7358V25.6764Z" fill="#141414"/>
<path fill-rule="evenodd" clip-rule="evenodd" d="M55.8362 20.1603C55.8362 20.9136 55.8351 21.6766 55.1468 22.1031C54.5891 22.4488 53.5878 22.5882 53.0924 22.0793C52.6408 21.6154 52.7658 20.7119 53.394 20.3921C53.8297 20.1703 55.272 20.1603 55.8362 20.1603ZM48.0605 13.0361L49.8078 16.894C51.9583 15.4408 55.565 15.2462 55.7375 17.3002C53.4059 17.3002 49.0432 17.0766 47.7812 19.6934C47.3115 20.6673 47.268 21.5845 47.5008 22.6539C48.1718 25.7362 52.0578 26.547 54.3439 25.6649C55.5472 25.2005 55.5576 24.8319 56.2311 24.0421V25.6764H61.4647C61.4647 23.1908 61.4645 20.7052 61.4647 18.2195C61.4649 14.7699 60.1404 12.5664 56.9639 11.7412C56.1302 11.5245 54.5562 11.2963 53.6633 11.3763C52.8779 11.4466 51.3335 11.6694 50.6146 11.8986C49.9072 12.1241 48.6102 12.4658 48.0605 13.0361Z" fill="#141414"/>
<path fill-rule="evenodd" clip-rule="evenodd" d="M39.938 25.6764H45.5665V6.67651H39.938V25.6764Z" fill="#141414"/>
<path fill-rule="evenodd" clip-rule="evenodd" d="M77.3628 5.65501C77.0133 5.68228 76.7573 5.89102 76.567 6.26179C76.3851 6.61599 76.4121 7.19586 76.6479 7.51806C77.2313 8.31546 77.8352 8.18 78.5477 7.69799L79.5581 8.26887C79.4867 10.0876 80.8195 10.0241 81.4148 9.6424C81.8775 9.3457 82.3554 8.18156 81.3108 7.49554C81.2924 7.48357 81.2649 7.47153 81.2468 7.45971L81.0164 6.26788C81.4057 5.91347 81.9832 5.8622 81.9108 4.83643C81.8629 4.157 81.3848 3.68999 80.7196 3.70472C80.0635 3.7191 79.5688 4.15048 79.5279 4.83813C79.4692 5.81972 80.1585 6.02628 80.4239 6.26788V7.28934C80.4065 7.30527 80.38 7.30718 80.3716 7.33734L79.8315 7.69799L78.8483 7.1793C78.8439 6.19566 78.8111 5.99752 77.9552 5.55283V4.32702C79.4883 4.20735 78.9317 1.17917 77.1719 1.98706C76.6095 2.2453 76.1972 3.13044 76.6055 3.78254C77.2524 4.81575 77.3628 3.43798 77.3628 5.65501Z" fill="#141414"/>
<path fill-rule="evenodd" clip-rule="evenodd" d="M81.6089 2.18188C81.7934 2.27854 81.9489 2.35501 82.123 2.46725L82.5964 2.79482C82.5964 3.28356 82.5947 4.25757 83.4851 4.32704V5.55285C81.8219 6.41703 82.7258 7.98876 83.7012 8.09194C84.2109 8.14582 84.8962 7.63577 84.9654 7.08224C85.0551 6.3635 84.7102 5.70439 84.0776 5.65504V4.32704C84.427 4.29978 84.683 4.09102 84.8734 3.72019C85.2532 2.98049 84.7294 2.00959 83.9592 1.88808C83.4004 1.79992 83.2551 2.03785 82.8927 2.28399L81.9113 1.66057C81.8809 -1.69292 78.0774 0.827828 80.0057 2.30807C80.547 2.72373 81.0678 2.54797 81.6089 2.18188Z" fill="#141414"/>
</svg>

<svg xmlns="http://www.w3.org/2000/svg" width="85" height="26" fill="none"><path fill="#141414" fill-rule="evenodd" d="M5.97 20.569v-8.785c2.766 0 6.417-.54 6.418 4.392 0 4.886-3.788 4.393-6.419 4.393ZM.117 6.779C-.094 7.25.045 23.535.045 25.574h6.813c2.457 0 3.976.128 6.153-.785 7.255-3.042 7.165-14.297.01-17.235-3.007-1.234-7.751-.877-11.199-.877-.393 0-1.362-.091-1.704.102ZM20.46 6.779c-.212.472-.074 16.756-.074 18.795h5.925V18.73h5.233v6.844h5.925V7.8c.003-1.479.71-1.119-4.74-1.123-.992-.001-1.197-.273-1.187.712l.002 6.03h-5.233l.005-6.44c-.073-.47-.647-.303-1.19-.302l-3.95-.002c-.508-.005-.444-.05-.716.104ZM69.266 18.628c.001-.024.036-.074.039-.061l.053-.15c.049-.334-.094-.859.479-1.65.34-.47 1.02-.805 1.6-.802 2.893.013 2.969 5.424 0 5.428-1.178.002-2.025-.998-2.073-2.151-.006-.14-.101-.57-.098-.614Zm-5.53 7.048h5.43v-.919c.784.407 1.455 1.227 3.356 1.228 7.896.007 8.673-10.503 3.815-13.548-1.652-1.036-3.642-1.36-5.48-.744-.862.289-.84.462-1.493.908V6.677h-5.628v19ZM55.836 20.16c0 .754 0 1.517-.69 1.943-.557.346-1.558.485-2.054-.024-.451-.464-.326-1.367.302-1.687.436-.222 1.878-.232 2.442-.232Zm-7.776-7.124 1.748 3.858c2.15-1.453 5.757-1.648 5.93.406-2.332 0-6.695-.223-7.957 2.393-.47.974-.513 1.891-.28 2.96.67 3.083 4.557 3.894 6.843 3.012 1.203-.464 1.214-.833 1.887-1.623v1.634h5.234V18.22c0-3.45-1.325-5.654-4.501-6.479-.834-.216-2.408-.445-3.3-.365-.786.07-2.33.293-3.05.523-.707.225-2.004.567-2.553 1.137ZM39.938 25.676h5.628v-19h-5.628v19ZM77.363 5.655c-.35.027-.606.236-.796.607-.182.354-.155.934.08 1.256.584.797 1.188.662 1.9.18l1.011.57c-.071 1.82 1.261 1.756 1.857 1.374.462-.296.94-1.46-.104-2.146-.019-.012-.046-.024-.064-.036l-.23-1.192c.389-.355.966-.406.894-1.432-.048-.679-.526-1.146-1.191-1.131-.656.014-1.151.445-1.192 1.133-.059.982.63 1.188.896 1.43v1.021c-.018.016-.044.018-.052.048l-.54.361-.984-.519c-.004-.983-.037-1.181-.893-1.626V4.327c1.533-.12.977-3.148-.783-2.34-.563.258-.975 1.143-.566 1.796.646 1.033.757-.345.757 1.872Z" clip-rule="evenodd"/><path fill="#141414" fill-rule="evenodd" d="M81.609 2.182c.184.097.34.173.514.285l.473.328c0 .489-.001 1.463.89 1.532v1.226c-1.664.864-.76 2.436.215 2.539.51.054 1.195-.456 1.264-1.01.09-.718-.255-1.378-.887-1.427V4.327c.349-.027.605-.236.795-.607.38-.74-.144-1.71-.914-1.832-.559-.088-.704.15-1.066.396l-.982-.623c-.03-3.354-3.834-.833-1.905.647.541.416 1.062.24 1.603-.126Z" clip-rule="evenodd"/></svg>
